X: 6395
T: Castle Kelly
R: reel
M: 4/4
K: Aminor
|:A2cA ABcA|G~E3 G2EG|A2cA GAcd|ecdB cBAG|
A2cA ABcA|G~E3 G2EG|A2cA GAcd|1 ecdB cBAG:|2 ecdB cBA2||
|:agec d2ed|cAGE G2eg|agec d2cd|eaag a2ag|
agec d2ed|cAGE G2EG|A2cA GAcd|1 ecdB cBA2:|2 ecdB cBAG||

